resources/svg/paint-fill.svg

<svg fill="currentColor" viewBox="0 0 24 24" xmlns="http://www.w3.org/2000/svg"><path d="M19.2277 18.7321L20.9955 16.9644L22.7632 18.7321C23.7395 19.7084 23.7395 21.2914 22.7632 22.2677C21.7869 23.244 20.204 23.244 19.2277 22.2677C18.2514 21.2914 18.2514 19.7084 19.2277 18.7321ZM8.87861 1.07959L20.1923 12.3933C20.5828 12.7838 20.5828 13.417 20.1923 13.8075L11.707 22.2928C11.3165 22.6833 10.6833 22.6833 10.2928 22.2928L1.80754 13.8075C1.41702 13.417 1.41702 12.7838 1.80754 12.3933L9.58572 4.61512L7.4644 2.4938L8.87861 1.07959ZM10.9999 6.02934L3.92886 13.1004H18.071L10.9999 6.02934Z"/></svg>

<svg xmlns="http://www.w3.org/2000/svg" viewBox="0 0 24 24" fill="currentColor">
    <g>
        <path fill="none" d="M0 0h24v24H0z"/>
        <path d="M19.228 18.732l1.768-1.768 1.767 1.768a2.5 2.5 0 1 1-3.535 0zM8.878 1.08l11.314 11.313a1 1 0 0 1 0 1.415l-8.485 8.485a1 1 0 0 1-1.414 0l-8.485-8.485a1 1 0 0 1 0-1.415l7.778-7.778-2.122-2.121L8.88 1.08zM11 6.03L3.929 13.1H18.07L11 6.03z"/>
    </g>
</svg>
